icons/solid/folder-add.svg

<svg width="24" height="24" viewBox="0 0 24 24" fill="none" xmlns="http://www.w3.org/2000/svg">
<path fill-rule="evenodd" clip-rule="evenodd" d="M2 6C2 4.34315 3.34315 3 5 3H8.92963C9.93269 3 10.8694 3.5013 11.4258 4.3359L12.2383 5.5547C12.4238 5.8329 12.736 6 13.0704 6H19C20.6569 6 22 7.34315 22 9V18C22 19.6569 20.6569 21 19 21H5C3.34315 21 2 19.6569 2 18V6ZM13 11C13 10.4477 12.5523 10 12 10C11.4477 10 11 10.4477 11 11V13H9C8.44772 13 8 13.4477 8 14C8 14.5523 8.44772 15 9 15H11V17C11 17.5523 11.4477 18 12 18C12.5523 18 13 17.5523 13 17V15H15C15.5523 15 16 14.5523 16 14C16 13.4477 15.5523 13 15 13H13V11Z" fill="currentColor"/>
</svg>

<svg width="24" height="24" fill="none" xmlns="http://www.w3.org/2000/svg"><path fill-rule="evenodd" clip-rule="evenodd" d="M2 6a3 3 0 013-3h3.93a3 3 0 012.496 1.336l.812 1.219A1 1 0 0013.07 6H19a3 3 0 013 3v9a3 3 0 01-3 3H5a3 3 0 01-3-3V6zm11 5a1 1 0 10-2 0v2H9a1 1 0 100 2h2v2a1 1 0 102 0v-2h2a1 1 0 100-2h-2v-2z" fill="currentColor"/></svg>
